source/img/facebook.svg

<svg width="13" height="20" viewBox="0 0 13 20" fill="none" xmlns="http://www.w3.org/2000/svg">
<path d="M11.5 0.833252H8.75002C7.53445 0.833252 6.36866 1.30674 5.50911 2.14957C4.64957 2.99239 4.16669 4.1355 4.16669 5.32743V8.02394H1.41669V11.6193H4.16669V18.81H7.83335V11.6193H10.5834L11.5 8.02394H7.83335V5.32743C7.83335 5.08905 7.92993 4.86042 8.10184 4.69186C8.27375 4.52329 8.50691 4.4286 8.75002 4.4286H11.5V0.833252Z" stroke="#666666" stroke-width="1.1" stroke-linecap="round" stroke-linejoin="round"/>
</svg>

<svg width="13" height="20" fill="none" xmlns="http://www.w3.org/2000/svg"><path d="M11.5.83H8.75c-1.22 0-2.38.48-3.24 1.32a4.45 4.45 0 0 0-1.34 3.18v2.7H1.42v3.59h2.75v7.19h3.66v-7.2h2.75l.92-3.59H7.83v-2.7c0-.23.1-.46.27-.63.17-.17.4-.26.65-.26h2.75V.83Z" stroke="#666" stroke-width="1.1" stroke-linecap="round" stroke-linejoin="round"/></svg>
